lg/expo.svg

<svg viewBox="0 0 512 145" version="1.1" xmlns="http://www.w3.org/2000/svg" preserveAspectRatio="xMidYMid" height="1em" width="1em">
  <g fill="#000020">
    <path d="M66.6783973,46.5413294 C67.8291061,44.8451711 69.0888057,44.6294864 70.1107072,44.6294864 C71.1326087,44.6294864 72.8350272,44.8451711 73.9861863,46.5413294 C83.0567441,59.0000603 98.0290194,83.8184395 109.073572,102.125744 C116.275973,114.064741 121.807933,123.234382 122.942878,124.401304 C127.203428,128.782104 133.046597,126.05193 136.441976,121.082939 C139.784661,116.190963 140.712434,112.755951 140.712434,109.091247 C140.712434,106.595268 92.2849333,16.5289974 87.4078196,9.03209576 C82.7176116,1.82134459 81.1899387,0 73.16245,0 L67.1553447,0 C59.1517259,0 57.9951622,1.82134459 53.3045039,9.03209576 C48.4278405,16.5289974 0,106.595268 0,109.091247 C0,112.755951 0.927977482,116.190963 4.27073475,121.082939 C7.66608684,126.05193 13.5092105,128.782104 17.7696253,124.401304 C18.9047061,123.234382 24.4366655,114.064741 31.6391568,102.125744 C42.6835292,83.8184395 57.6078395,59.0000603 66.6783973,46.5413294 Z"/>
    <path d="M387.841898,39.3946846 C407.787668,39.3946846 423.649434,57.4016785 423.649434,79.673636 C423.649434,101.945594 407.787668,120.110579 387.841898,120.110579 C377.1626,120.110579 368.838765,115.687894 363.499115,107.632032 L363.499115,107.632032 L363.499115,144.120084 L341.355065,144.120084 L341.355065,40.9742858 L363.499115,40.9742858 L363.499115,51.8733221 C368.838765,43.8175048 377.1626,39.3946846 387.841898,39.3946846 Z M471.952632,39.3946846 C494.565974,39.3946846 512,56.769802 512,79.8317177 C512,102.893183 494.565974,120.110579 471.952632,120.110579 C449.179406,120.110579 431.903462,102.893183 431.903462,79.8317177 C431.903462,56.769802 449.179406,39.3946846 471.952632,39.3946846 Z M241.752323,7.96128353 L241.752323,30.3911426 L197.620952,30.3911426 L197.620952,50.2938561 L236.883767,50.2938561 L236.883767,72.7234449 L197.620952,72.7234449 L197.620952,96.1010737 L241.752323,96.1010737 L241.752323,118.531113 L174.377535,118.531113 L174.377535,7.96128353 L241.752323,7.96128353 Z M277.784596,40.9742858 L290.505896,59.2973079 L303.383926,40.9742858 L329.768711,40.9742858 L303.698288,78.409883 L331.653081,118.531113 L304.954385,118.531113 L290.348715,97.5229084 L275.743045,118.531113 L249.358711,118.531113 L277.156323,78.5679647 L251.0859,40.9742858 L277.784596,40.9742858 Z M382.816611,60.5610609 C371.979682,60.5610609 363.499115,68.9326363 363.499115,79.673636 C363.499115,90.5727174 371.979682,98.7866614 382.816611,98.7866614 C393.49591,98.7866614 402.133657,90.4146357 402.133657,79.673636 C402.133657,69.0907181 393.49591,60.5610609 382.816611,60.5610609 Z M471.952632,60.7186923 C461.427362,60.7186923 453.577321,68.7745546 453.577321,79.8317177 C453.577321,90.5727174 461.427362,98.7866614 471.952632,98.7866614 C482.315766,98.7866614 490.327942,90.5727174 490.327942,79.8317177 C490.327942,68.7745546 482.315766,60.7186923 471.952632,60.7186923 Z"/>
  </g>
</svg>

<svg viewBox="0 0 512 145" xmlns="http://www.w3.org/2000/svg" preserveAspectRatio="xMidYMid" height="1em" width="1em">
  <path d="M66.678 46.541c1.151-1.696 2.41-1.912 3.433-1.912 1.022 0 2.724.216 3.875 1.912 9.07 12.46 24.043 37.277 35.088 55.585 7.202 11.939 12.734 21.108 13.869 22.275 4.26 4.381 10.104 1.65 13.499-3.318 3.343-4.892 4.27-8.327 4.27-11.992 0-2.496-48.427-92.562-53.304-100.059C82.718 1.822 81.19 0 73.162 0h-6.007c-8.003 0-9.16 1.821-13.85 9.032C48.428 16.53 0 106.595 0 109.092c0 3.664.928 7.099 4.27 11.99 3.396 4.97 9.24 7.7 13.5 3.32 1.135-1.168 6.667-10.337 13.87-22.276C42.683 83.818 57.607 59 66.677 46.54Zm321.164-7.146c19.946 0 35.807 18.007 35.807 40.279 0 22.272-15.861 40.437-35.807 40.437-10.68 0-19.003-4.423-24.343-12.479v36.488h-22.144V40.974H363.5v10.9c5.34-8.056 13.664-12.48 24.343-12.48Zm84.11 0C494.567 39.395 512 56.77 512 79.832c0 23.061-17.434 40.279-40.047 40.279-22.774 0-40.05-17.218-40.05-40.28 0-23.061 17.276-40.436 40.05-40.436ZM241.753 7.96v22.43h-44.131v19.903h39.263v22.43H197.62V96.1h44.131v22.43h-67.374V7.961h67.374Zm36.033 33.013 12.72 18.323 12.879-18.323h26.385L303.7 78.409l27.954 40.121h-26.699L290.35 97.523l-14.606 21.008H249.36l27.797-39.963-26.07-37.594h26.699ZM382.818 60.56c-10.837 0-19.318 8.372-19.318 19.113 0 10.899 8.48 19.113 19.318 19.113 10.679 0 19.317-8.372 19.317-19.113 0-10.583-8.638-19.113-19.317-19.113Zm89.136.158c-10.526 0-18.376 8.056-18.376 19.113 0 10.74 7.85 18.955 18.376 18.955 10.363 0 18.375-8.214 18.375-18.955 0-11.057-8.012-19.113-18.375-19.113Z" fill="#000020"/>
</svg>
